!!!COM:	Bach, Johann Sebastian
!!!CDT:	1685/02/21/-1750/07/28/
!!!OTL@@DE:	Jesus Christus, unser Heiland
!!!SCT:	BWV 364
!!!PC#:	174
!!!AGN:	chorale
**kern	**kern	**kern	**kern
*ICvox	*ICvox	*ICvox	*ICvox
*Ibass	*Itenor	*Ialto	*Isoprn
*I"Bass	*I"Tenor	*I"Alto	*I"Soprano
*clefF4	*clefGv2	*clefG2	*clefG2
*k[b-]	*k[b-]	*k[b-]	*k[b-]
*g:dor	*g:dor	*g:dor	*g:dor
*M4/4	*M4/4	*M4/4	*M4/4
*met(c)	*met(c)	*met(c)	*met(c)
*MM100	*MM100	*MM100	*MM100
=1-	=1-	=1-	=1-
8GGL	4B-	4d	4g
8AAJ	.	.	.
8BB-L	4B-	4d	4f
8CJ	.	.	.
4D	8AL	[4d	4f
.	8B-J	.	.
4E	4G	8dL]	4g
.	.	8cJ	.
=2	=2	=2	=2
4F	8FL	8c	4a
.	8AJ	4f	.
4G	4B-	.	4g
.	.	8e	.
4G#	4B	4.d	4f
8AL	8EL	.	4e
8AAJ	16AL	8c#	.
.	16GJJ	.	.
=3	=3	=3	=3
2D;	2F;	2A;	2d;
4r	4ry	4ry	4r
8DL	4A	4d	4f
8CnXJ	.	.	.
=4	=4	=4	=4
4BB-	8B-L	4d	4g
.	8GJ	.	.
4FF#	[4c	8e-L	4a
.	.	8dJ	.
4GG	8cL]	4d	4g
.	8B-J	.	.
4D	4A	4d	4f#
=5	=5	=5	=5
2GG;	2B-;	2d;	2g;
4r	4ry	4ry	4r
8E-L	4c	8gL	4cc
8DJ	.	8fnXJ	.
=6	=6	=6	=6
4C	4c	4e-	8gL
.	.	.	8aJ
4GG	4d	8dL	4b-
.	.	[8gJ	.
4D	4.d	8gL]	4a
.	.	8f#J	.
4E-	.	8gL	4g
.	8c	8GJ	.
=7	=7	=7	=7
2D;	2F#;	2d;	2a;
4r	4ry	4ry	4r
4GG	4B-	8dL	4g
.	.	8c#J	.
=8	=8	=8	=8
4D	4A	8dL	4fnX
.	.	[8fJ	.
4C	4c	8fL]	4g
.	.	8eJ	.
8FL	4c	4f	4a
8E	.	.	.
8D	4B-	[4e	4g
8C#J	.	.	.
=9	=9	=9	=9
4D	[4A	8e]	4f
.	.	4d	.
4AA	8.AL]	.	4e
.	.	8c#	.
.	16GJk	.	.
4DD;	4F;	4A;	4d;
8DL	4A	4d	4f
8CnXJ	.	.	.
=10	=10	=10	=10
8BB-L	4B-	4d	4g
8AAJ	.	.	.
8GGL	[4c	4e-	4a
8FF#J	.	.	.
4GG	8cL]	4d	4g
.	8B-J	.	.
4DD	8AL	4d	4f#
.	8cJ	.	.
=11	=11	=11	=11
1GG;	1B;	1d;	1g;
==	==	==	==
*-	*-	*-	*-
!!!hum2abc: -Q ''
!!!title: @{PC#}. @{OTL@@DE}
!!!YOR1: 371 vierstimmige Choralges&auml;nge von Johann Sebastian Bach, 
!!!YOR2: 4th ed. by Alfred D&ouml;rffel (Leipzig: Breitkopf und H&auml;rtel, 
!!!YOR2: c.1875). 178 pp. Plate "V.A.10".  reprint: J.S. Bach, 371 Four-Part 
!!!YOR4: Chorales (New York: Associated Music Publishers, Inc., c.1940).
!!!SMS: B&H, 4th ed, Alfred D&ouml;rffel, c.1875, plate V.A.10
!!!EED:  Craig Stuart Sapp
!!!EEV:  2009/05/22
